outputs/icons/image/exposure_sharp.svg

<svg xmlns="http://www.w3.org/2000/svg" width="1200" height="1200" fill="none"><g clip-path="url(#a)"><path fill="#000" d="M1050 150H150v900h900zM275 375h100V275h75v100h100v75H450v100h-75V450H275zm675 575H250l700-700zM850 850v-75H600v75z"/></g><defs><clipPath id="a"><path fill="#fff" d="M0 0h1200v1200H0z"/></clipPath></defs></svg>

<svg width="1200" height="1200" viewBox="0 0 1200 1200" fill="none" xmlns="http://www.w3.org/2000/svg"><g clip-path="url(#clip0_1106_3219)"><path d="M1050 150H150V1050H1050V150ZM275 375H375V275H450V375H550V450H450V550H375V450H275V375ZM950 950H250L950 250V950ZM850 850V775H600V850H850Z" fill="black"/></g><defs><clipPath id="clip0_1106_3219"><path width="24" fill="white" d="M0 0H1200V1200H0V0z"/></clipPath></defs></svg>
